svg/tandoor.svg

<svg xmlns="http://www.w3.org/2000/svg" xml:space="preserve" style="fill-rule:evenodd;clip-rule:evenodd;stroke-linejoin:round;stroke-miterlimit:2" viewBox="0 0 512 512"><g transform="matrix(.92371 0 0 .95776 3.713 -54.33)"><ellipse cx="273.123" cy="324.015" rx="259.822" ry="250.584" style="fill:url(#a)"/><clipPath id="b"><ellipse cx="273.123" cy="324.015" rx="259.822" ry="250.584"/></clipPath><g clip-path="url(#b)"><path d="m156.285 427.208 233.269 233.269 279.249-164.926-294.791-294.79-217.727 226.447Z" style="fill:#161616" transform="matrix(1.10322 0 0 1.064 -5.583 50.579)"/><path d="m208.628 178.613 277.307 277.306 104.092-91.289L296.923 71.526l-2.748 67.463-85.547 39.624Z" style="fill:#161616" transform="matrix(1.10322 0 0 1.064 -10.24 51.404)"/><path d="m310.385 145.641 277.307 277.307 2.7-61.591L297.288 68.253l-3.113 70.736 16.21 6.652Z" style="fill:#161616" transform="matrix(1.10322 0 0 1.064 -99.784 80.212)"/></g></g><path d="M256.049 220c30.173-.006 56.607-12.69 73.339-25.866 16.962-13.38 41.511-10.728 55.223 5.966 22.518 27.276 35.987 61.844 35.987 99.43 0 61.55-37.994 137.571-90.834 164.176-22.729 11.444-46.298 16.88-73.666 16.893H256c-27.368-.013-50.937-5.449-73.666-16.893C129.494 437.101 91.5 361.08 91.5 299.53c0-37.586 13.469-72.154 35.987-99.43 13.712-16.694 38.261-19.346 55.223-5.966 16.732 13.176 43.166 25.86 73.339 25.866Z" style="fill:#ffcb76" transform="translate(16 15.999) scale(.9375)"/><g transform="matrix(.61548 0 0 .56833 -138.257 -438.603)"><path d="M604.408 844.314c-2.427-3.469-2.446-8.258-.046-11.749 2.401-3.491 6.643-4.844 10.407-3.319 19.101 7.623 44.064 19.383 63.438 35.206 40.319 32.929 51.343 54.955 60.345 77.639 10.656 26.852 12.233 54.589 9.963 73.989-6.497 55.53-48.16 101.42-107.481 101.42s-106.541-45.45-107.481-101.42c-.567-33.708 10.432-60.637 22.435-79.86 2.994-4.783 8.606-6.751 13.621-4.776 5.014 1.975 8.148 7.387 7.606 13.136-1.722 12.136-2.853 24.792-2.283 34.904 1.931 34.216 22.239 43.016 43.151 42.806 22.288-.21 44.842-19.12 36.714-67.395-7.107-42.214-32.435-84.701-50.389-110.581Z" style="fill:#ff6f00"/><clipPath id="c"><path d="M604.408 844.314c-2.427-3.469-2.446-8.258-.046-11.749 2.401-3.491 6.643-4.844 10.407-3.319 19.101 7.623 44.064 19.383 63.438 35.206 40.319 32.929 51.343 54.955 60.345 77.639 10.656 26.852 12.233 54.589 9.963 73.989-6.497 55.53-48.16 101.42-107.481 101.42s-106.541-45.45-107.481-101.42c-.567-33.708 10.432-60.637 22.435-79.86 2.994-4.783 8.606-6.751 13.621-4.776 5.014 1.975 8.148 7.387 7.606 13.136-1.722 12.136-2.853 24.792-2.283 34.904 1.931 34.216 22.239 43.016 43.151 42.806 22.288-.21 44.842-19.12 36.714-67.395-7.107-42.214-32.435-84.701-50.389-110.581Z"/></clipPath><g clip-path="url(#c)"><path d="M255.004 46.957c24.543 11.588 50.996 38.49 58.303 73.204 12.13 57.63-21.736 73.628-50.811 72.242-46.607-2.222-62.302-39.157-31.17-83.503 19.305-27.499 1.337-72.492 23.678-61.943Z" style="fill:#ffd100" transform="matrix(1.28784 -.2706 .28594 1.59598 247.349 825.209)"/></g></g><path d="M228.197 408.524c-5.499 0-10.384-1.836-14.173-4.905a6.838 6.838 0 0 1 4.308-12.147c13.882-.072 37.78-.076 37.78-.076s23.897.004 37.779.076a6.837 6.837 0 0 1 4.308 12.147c-3.789 3.069-8.673 4.905-14.172 4.905h-55.83Zm-10.957-29.647a11.42 11.42 0 0 1-11.42-11.441l.022-12.897a9.158 9.158 0 0 0-6.711-8.825c-13.818-3.873-23.931-16.246-23.931-30.891 0-17.753 14.859-32.166 33.162-32.166a16.601 16.601 0 0 0 15.655-11.076c3.226-9.191 12.394-19.566 31.983-19.583h.223c19.589.017 28.757 10.392 31.983 19.583a16.602 16.602 0 0 0 15.655 11.076c18.303 0 33.162 14.413 33.162 32.166 0 14.645-10.112 27.018-23.93 30.891a9.16 9.16 0 0 0-6.712 8.825l.01 12.908a11.42 11.42 0 0 1-11.42 11.43H217.24Z" style="fill:#161616" transform="translate(7.734 15.597) scale(.96937)"/><defs><linearGradient id="a" x1="0" x2="1" y1="0" y2="0" gradientTransform="matrix(0 0 0 0 3755.77 81.718)" gradientUnits="userSpaceOnUse"><stop offset="0" style="stop-color:#272727;stop-opacity:1"/><stop offset="1" style="stop-color:#6c6c6c;stop-opacity:1"/></linearGradient></defs></svg>

<?xml version="1.0" encoding="UTF-8" standalone="no"?>
<!DOCTYPE svg PUBLIC "-//W3C//DTD SVG 1.1//EN" "http://www.w3.org/Graphics/SVG/1.1/DTD/svg11.dtd">
<svg width="100%" height="100%" viewBox="0 0 512 512" version="1.1" xmlns="http://www.w3.org/2000/svg" xmlns:xlink="http://www.w3.org/1999/xlink" xml:space="preserve" xmlns:serif="http://www.serif.com/" style="fill-rule:evenodd;clip-rule:evenodd;stroke-linejoin:round;stroke-miterlimit:2;">
    <g id="Logo" transform="matrix(0.637323,0,0,0.637323,-243.095,-716.725)">
        <g id="Kreis" transform="matrix(1.44936,0,0,1.50279,387.258,1039.34)">
            <ellipse cx="273.123" cy="324.015" rx="259.822" ry="250.584" style="fill:url(#_Linear1);"/>
            <clipPath id="_clip2">
                <ellipse cx="273.123" cy="324.015" rx="259.822" ry="250.584"/>
            </clipPath>
            <g clip-path="url(#_clip2)">
                <g id="Shadow" transform="matrix(1.10322,0,0,1.064,-5.58287,50.5786)">
                    <path d="M156.285,427.208L389.554,660.477L668.803,495.551L374.012,200.761L156.285,427.208Z" style="fill:rgb(22,22,22);"/>
                    <g transform="matrix(1,0,0,1,-4.22105,0.775864)">
                        <path d="M208.628,178.613L485.935,455.919L590.027,364.63L296.923,71.526L294.175,138.989L208.628,178.613Z" style="fill:rgb(22,22,22);"/>
                    </g>
                    <g transform="matrix(1,0,0,1,-85.3876,27.8512)">
                        <path d="M310.385,145.641L587.692,422.948L590.392,361.357L297.288,68.253L294.175,138.989L310.385,145.641Z" style="fill:rgb(22,22,22);"/>
                    </g>
                </g>
            </g>
        </g>
        <g transform="matrix(1.471,0,0,1.471,406.537,1149.69)">
            <path d="M256.049,220C286.222,219.994 312.656,207.31 329.388,194.134C346.35,180.754 370.899,183.406 384.611,200.1C407.129,227.376 420.598,261.944 420.598,299.53C420.598,361.08 382.604,437.101 329.764,463.706C307.035,475.15 283.466,480.586 256.098,480.599L256.098,480.599L256.049,480.599L256,480.599L256,480.599C228.632,480.586 205.063,475.15 182.334,463.706C129.494,437.101 91.5,361.08 91.5,299.53C91.5,261.944 104.969,227.376 127.487,200.1C141.199,183.406 165.748,180.754 182.71,194.134C199.442,207.31 225.876,219.994 256.049,220Z" style="fill:rgb(255,203,118);"/>
        </g>
        <g id="Flame-2" serif:id="Flame 2" transform="matrix(0.965725,0,0,0.89175,164.497,436.391)">
            <path d="M604.408,844.314C601.981,840.845 601.962,836.056 604.362,832.565C606.763,829.074 611.005,827.721 614.769,829.246C633.87,836.869 658.833,848.629 678.207,864.452C718.526,897.381 729.55,919.407 738.552,942.091C749.208,968.943 750.785,996.68 748.515,1016.08C742.018,1071.61 700.355,1117.5 641.034,1117.5C581.713,1117.5 534.493,1072.05 533.553,1016.08C532.986,982.372 543.985,955.443 555.988,936.22C558.982,931.437 564.594,929.469 569.609,931.444C574.623,933.419 577.757,938.831 577.215,944.58C575.493,956.716 574.362,969.372 574.932,979.484C576.863,1013.7 597.171,1022.5 618.083,1022.29C640.371,1022.08 662.925,1003.17 654.797,954.895C647.69,912.681 622.362,870.194 604.408,844.314Z" style="fill:rgb(255,111,0);"/>
            <clipPath id="_clip3">
                <path d="M604.408,844.314C601.981,840.845 601.962,836.056 604.362,832.565C606.763,829.074 611.005,827.721 614.769,829.246C633.87,836.869 658.833,848.629 678.207,864.452C718.526,897.381 729.55,919.407 738.552,942.091C749.208,968.943 750.785,996.68 748.515,1016.08C742.018,1071.61 700.355,1117.5 641.034,1117.5C581.713,1117.5 534.493,1072.05 533.553,1016.08C532.986,982.372 543.985,955.443 555.988,936.22C558.982,931.437 564.594,929.469 569.609,931.444C574.623,933.419 577.757,938.831 577.215,944.58C575.493,956.716 574.362,969.372 574.932,979.484C576.863,1013.7 597.171,1022.5 618.083,1022.29C640.371,1022.08 662.925,1003.17 654.797,954.895C647.69,912.681 622.362,870.194 604.408,844.314Z"/>
            </clipPath>
            <g clip-path="url(#_clip3)">
                <g transform="matrix(1.28784,-0.270602,0.285942,1.59598,247.349,825.209)">
                    <path d="M255.004,46.957C279.547,58.545 306,85.447 313.307,120.161C325.437,177.791 291.571,193.789 262.496,192.403C215.889,190.181 200.194,153.246 231.326,108.9C250.631,81.401 232.663,36.408 255.004,46.957Z" style="fill:rgb(255,209,0);"/>
                </g>
            </g>
        </g>
        <g id="Hut" transform="matrix(1.521,0,0,1.521,393.566,1149.06)">
            <path d="M228.197,408.524C222.698,408.524 217.813,406.688 214.024,403.619C211.776,401.794 210.92,398.752 211.888,396.024C212.856,393.295 215.437,391.472 218.332,391.472C232.214,391.4 256.112,391.396 256.112,391.396C256.112,391.396 280.009,391.4 293.891,391.472C296.786,391.472 299.367,393.295 300.335,396.024C301.303,398.752 300.447,401.794 298.199,403.619C294.41,406.688 289.526,408.524 284.027,408.524L228.197,408.524ZM217.24,378.877C214.208,378.877 211.3,377.671 209.158,375.525C207.015,373.379 205.814,370.469 205.82,367.436C205.831,361.119 205.842,354.539 205.842,354.539C205.842,350.423 203.097,346.814 199.131,345.714C185.313,341.841 175.2,329.468 175.2,314.823C175.2,297.07 190.059,282.657 208.362,282.657C208.362,282.657 208.362,282.657 208.362,282.657C215.401,282.657 221.675,278.218 224.017,271.581C227.243,262.39 236.411,252.015 256,251.998L256,251.998L256.223,251.998L256.223,251.998C275.812,252.015 284.98,262.39 288.206,271.581C290.549,278.218 296.822,282.657 303.861,282.657C303.861,282.657 303.861,282.657 303.861,282.657C322.164,282.657 337.023,297.07 337.023,314.823C337.023,329.468 326.911,341.841 313.093,345.714C309.127,346.814 306.382,350.423 306.381,354.539C306.381,354.539 306.386,361.127 306.391,367.447C306.394,370.478 305.191,373.385 303.049,375.529C300.907,377.672 298.001,378.877 294.971,378.877C275.615,378.877 236.604,378.877 217.24,378.877Z" style="fill:rgb(22,22,22);"/>
        </g>
    </g>
    <defs>
        <linearGradient id="_Linear1" x1="0" y1="0" x2="1" y2="0" gradientUnits="userSpaceOnUse" gradientTransform="matrix(2e-06,0,0,2e-06,3755.77,81.7179)"><stop offset="0" style="stop-color:rgb(39,39,39);stop-opacity:1"/><stop offset="1" style="stop-color:rgb(108,108,108);stop-opacity:1"/></linearGradient>
    </defs>
</svg>
